!!!COM: Runjanin, Josip
!!!CDT: 1821-1878
!!!OTL: National Anthem, Croatia
!!!ENC: Davis, Matthew J.
!!Vocal Line Only
**kern
*clefG2
*k[b-e-]
*B-:
*M4/4
=1-
4dd
4dd
4.dd
8ee-
=2
8cc
8b-
4b-
2f
=3
8e-
8d
8e-
8f
2g
=4
8f
8e-
8d
8e-
2f
=5
4dd
4dd
4.dd
8cc
=6
8cc
8b-
4b-
2f
=7
8e-
8d
8e-
8f
2g
=8
8a
8a
4cc
2b-
=9
4a
4a
4.a
8g
=10
4a
8a
8b-
4.cc
8a
=11
8cc
8cc
8cc
8cc
4cc
4b-
=12
4a
4g
2f
=13
4dd
4dd
4.dd
8cc
=14
8cc
8b-
4b-
2f
=15
8e-
8d
8e-
8f
2g
=16
8a
8a
4cc
2b-
==|!
*-
